src/assets/user_avatars/student-avatar.svg

<svg fill="none" height="111" viewBox="0 0 80 111" width="80" xmlns="http://www.w3.org/2000/svg"><path d="m13.0605 97.5305s3.4899-13.0661 22.6764-13.0661c19.1866 0 22.7104 13.5372 22.7104 13.5372" fill="#f9bef9"/><g stroke="#000" stroke-miterlimit="10" stroke-width="2"><path d="m68.4664 50.3152h-63.85312v66.3738h63.85312z" fill="#fed766"/><path d="m4.61966 49.9719 31.86714-42.99363 31.8699 42.99363-7.3316 9.2597-8.5937-9.2597-7.3316 9.2597-8.5938-9.2597-7.1587 9.2597-8.5965-9.2597-7.6855 9.2597-8.59655-9.2597h.00549z" fill="#fff5d9" stroke-linecap="round" stroke-linejoin="round"/><path d="m36.4118 6.97827-8.3825 11.65653h16.7649z" fill="#565961"/><path d="m40.7616 82.7419s-.9083 3.3098-4.8994 3.3098c-3.991 0-4.8993-3.3098-4.8993-3.3098" stroke-linecap="round" stroke-linejoin="round"/><path d="m45.502 76.4902s.6444-2.3503 3.4823-2.3503c2.8378 0 3.4823 2.3503 3.4823 2.3503" stroke-linecap="round" stroke-linejoin="round"/><path d="m20.0156 76.4902s.6445-2.3503 3.4823-2.3503c2.8379 0 3.4823 2.3503 3.4823 2.3503" stroke-linecap="round" stroke-linejoin="round"/></g></svg>

<svg width="80" height="111" viewBox="0 0 80 111" fill="none" xmlns="http://www.w3.org/2000/svg">
<path d="M13.0605 97.5305C13.0605 97.5305 16.5504 84.4644 35.7369 84.4644C54.9235 84.4644 58.4473 98.0016 58.4473 98.0016" fill="#F9BEF9"/>
<path d="M68.4664 50.3152H4.61328V116.689H68.4664V50.3152Z" fill="#FED766" stroke="black" stroke-width="2" stroke-miterlimit="10"/>
<path d="M4.61966 49.9719L36.4868 6.97827L68.3567 49.9719L61.0251 59.2316L52.4314 49.9719L45.0998 59.2316L36.506 49.9719L29.3473 59.2316L20.7508 49.9719L13.0653 59.2316L4.46875 49.9719H4.47424H4.61966Z" fill="#FFF5D9" stroke="black" stroke-width="2" stroke-miterlimit="10" stroke-linecap="round" stroke-linejoin="round"/>
<path d="M36.4118 6.97827L28.0293 18.6348H44.7942L36.4118 6.97827Z" fill="#565961" stroke="black" stroke-width="2" stroke-miterlimit="10"/>
<path d="M40.7616 82.7419C40.7616 82.7419 39.8533 86.0517 35.8622 86.0517C31.8712 86.0517 30.9629 82.7419 30.9629 82.7419" stroke="black" stroke-width="2" stroke-miterlimit="10" stroke-linecap="round" stroke-linejoin="round"/>
<path d="M45.502 76.4902C45.502 76.4902 46.1464 74.1399 48.9843 74.1399C51.8221 74.1399 52.4666 76.4902 52.4666 76.4902" stroke="black" stroke-width="2" stroke-miterlimit="10" stroke-linecap="round" stroke-linejoin="round"/>
<path d="M20.0156 76.4902C20.0156 76.4902 20.6601 74.1399 23.4979 74.1399C26.3358 74.1399 26.9802 76.4902 26.9802 76.4902" stroke="black" stroke-width="2" stroke-miterlimit="10" stroke-linecap="round" stroke-linejoin="round"/>
</svg>
